64x64/apps/simple-image-reducer.svg

<svg xmlns="http://www.w3.org/2000/svg" width="64" height="64" version="1">
 <rect style="opacity:0.2" width="57" height="57" x="4" y="4" rx="2.85" ry="2.85"/>
 <rect style="fill:#4cc74c" width="57" height="57" x="4" y="3" rx="2.85" ry="2.85"/>
 <path style="opacity:0.2" d="M 18.384766,7.9296875 14.042969,22.042969 27.072266,19.871094 22.5,16.824219 c 7.544215,-4.71585 17.568498,-3.588093 23.861328,3.173828 l 2.859375,-2.662109 C 44.934179,12.72988 39.172732,10.294769 33.330078,10.082031 28.724133,9.9143235 24.071863,11.133087 20.048828,13.751953 Z M 10,19.470703 V 45.529297 L 18.685547,32.5 Z m 45,0 L 46.314453,32.5 55,45.529297 Z M 32.5,20 A 6.5,6.5 0 0 0 26,26.5 6.5,6.5 0 0 0 26.023438,27.017578 6.5,6.5 0 0 0 20,33.5 6.5,6.5 0 0 0 26.5,40 6.5,6.5 0 0 0 31,38.1875 V 44 h 3 V 38.179688 A 6.5,6.5 0 0 0 38.5,40 6.5,6.5 0 0 0 45,33.5 6.5,6.5 0 0 0 38.972656,27.023438 6.5,6.5 0 0 0 39,26.5 6.5,6.5 0 0 0 32.5,20 Z m 18.457031,22.884766 -13.029297,2.171875 4.56836,3.044921 c -7.558845,4.722314 -17.598959,3.580629 -23.884766,-3.203124 l -2.867187,2.65625 c 7.657942,8.264587 20.062161,9.57254 29.207031,3.621093 L 46.615234,57 Z"/>
 <path style="fill:#2bffbf" d="M 10,18.471429 V 44.528571 L 18.685714,31.5 Z"/>
 <path style="fill:#2bffbf" d="M 54.999714,18.471429 V 44.528571 L 46.314,31.5 Z"/>
 <path style="fill:none;stroke:#bfecbf;stroke-width:3.90857148" d="m 18.284388,16.592413 a 20.888758,20.890079 0 0 1 29.506625,1.074372"/>
 <path style="fill:none;stroke:#bfecbf;stroke-width:3.90857148" d="M 46.663124,46.382248 A 20.888758,20.890079 0 0 1 17.17823,45.226154"/>
 <path style="fill:#bfecbf" d="m 14.042857,21.043 4.342857,-14.1142854 2.171429,7.6000004 6.514285,4.342857 z"/>
 <path style="fill:#bfecbf" d="M 50.957143,41.885714 46.614286,56 44.442857,48.399999 37.928572,44.057142 Z"/>
 <circle style="fill:#f4f4f7" cx="32.5" cy="25.5" r="6.5"/>
 <circle style="fill:#f4f4f7" cx="38.5" cy="32.5" r="6.5"/>
 <circle style="fill:#f4f4f7" cx="26.5" cy="32.5" r="6.5"/>
 <rect style="fill:#f4f4f7" width="3" height="14" x="31" y="29"/>
 <path style="fill:#f4f4f7;opacity:0.2" d="M 6.8496094 3 C 5.2707094 3 4 4.2707094 4 5.8496094 L 4 6.8496094 C 4 5.2707094 5.2707094 4 6.8496094 4 L 58.150391 4 C 59.729291 4 61 5.2707094 61 6.8496094 L 61 5.8496094 C 61 4.2707094 59.729291 3 58.150391 3 L 6.8496094 3 z"/>
</svg>

<svg xmlns="http://www.w3.org/2000/svg" width="64" height="64" version="1"><rect style="opacity:.2" width="57" height="57" x="4" y="4" rx="2.85" ry="2.85"/><rect style="fill:#4cc74c" width="57" height="57" x="4" y="3" rx="2.85" ry="2.85"/><path style="opacity:.2" d="m18.385 7.93-4.342 14.113 13.03-2.172-4.573-3.047c7.544-4.716 17.568-3.588 23.861 3.174l2.86-2.662c-4.287-4.606-10.048-7.041-15.89-7.254a22.806 22.806 0 0 0-13.282 3.67zM10 19.47v26.06l8.686-13.03zm45 0L46.314 32.5 55 45.53zM32.5 20a6.5 6.5 0 0 0-6.5 6.5 6.5 6.5 0 0 0 .023.518A6.5 6.5 0 0 0 20 33.5a6.5 6.5 0 0 0 6.5 6.5 6.5 6.5 0 0 0 4.5-1.813V44h3v-5.82A6.5 6.5 0 0 0 38.5 40a6.5 6.5 0 0 0 6.5-6.5 6.5 6.5 0 0 0-6.027-6.477A6.5 6.5 0 0 0 39 26.5a6.5 6.5 0 0 0-6.5-6.5zm18.457 22.885-13.03 2.172 4.57 3.045c-7.56 4.722-17.6 3.58-23.886-3.204l-2.867 2.657c7.658 8.264 20.062 9.572 29.207 3.62L46.615 57z"/><path style="fill:#2bffbf" d="M10 18.471V44.53L18.686 31.5zM55 18.471V44.53L46.314 31.5z"/><path style="fill:none;stroke:#bfecbf;stroke-width:3.90857148" d="M18.284 16.592a20.889 20.89 0 0 1 29.507 1.075M46.663 46.382a20.889 20.89 0 0 1-29.485-1.156"/><path style="fill:#bfecbf" d="m14.043 21.043 4.343-14.114 2.171 7.6 6.514 4.343zM50.957 41.886 46.614 56l-2.171-7.6-6.514-4.343z"/><circle style="fill:#f4f4f7" cx="32.5" cy="25.5" r="6.5"/><circle style="fill:#f4f4f7" cx="38.5" cy="32.5" r="6.5"/><circle style="fill:#f4f4f7" cx="26.5" cy="32.5" r="6.5"/><path style="fill:#f4f4f7" d="M31 29h3v14h-3z"/><path style="fill:#f4f4f7;opacity:.2" d="M6.85 3A2.843 2.843 0 0 0 4 5.85v1C4 5.27 5.27 4 6.85 4h51.3C59.73 4 61 5.27 61 6.85v-1C61 4.27 59.73 3 58.15 3H6.85z"/></svg>
